X:035
T:Curly Mike (reel) 
T:Piper's Despair
B:CRE3.109 (Maidhc Catach)
F:file ID: cre.3/035curly_m
N:This tune is often played in Em.
R:reel
L:1/8
Q:180
M:C
K:Dm
DEFG AGEG|(3A=Bc Gc cAGE|C2EC GCEG|(3A=Bc cB cAGE|
DEFG AGEG|(3A=Bc Gc cAGE|C2EG cege|fedc Add2:|
d2ed adfe|defg agge|c2fc gcec|cege dcAd|
d2ed adfe|defg aged|c3e gage|fedc Add2:|

%%%

